X: 1
T: The Swaggering Jig
R: slip jig
M: 9/8
L: 1/8
K: Gmaj
|:BGG AGE DEG|BAG DEG A3|BGG AGE DEG|cBA BGE D3:|
Bdd dge dBG|Bdd dBG A3| Bdd dge dBG|cBA BGE D3|
Bdd dge dBG|Bdd dBG A3| gfe fdB cBA|cBA BGE D3||


Tune 661	Setting 13696

